lib/images/icon_tools.svg

<svg width="100" height="62" viewBox="0 0 100 62" fill="none" xmlns="http://www.w3.org/2000/svg">
<path d="M2.42011 20.863L52.2831 17.6987L53.9678 44.2449C54.0237 45.1257 53.7269 45.9927 53.1427 46.6551C52.5585 47.3176 51.7348 47.7211 50.8528 47.7771L7.75592 50.5121C7.3106 50.5558 6.86104 50.5095 6.43406 50.3759C6.00708 50.2424 5.61142 50.0243 5.27068 49.7347C4.92994 49.4452 4.65109 49.09 4.45078 48.6905C4.25046 48.291 4.13278 47.8552 4.10475 47.4093L2.42011 20.863Z" fill="white"/>
<path d="M2.00579 14.3353C1.96087 13.8808 2.0101 13.422 2.15041 12.9873C2.29073 12.5526 2.51913 12.1514 2.8214 11.8086C3.12367 11.4659 3.49334 11.1889 3.9074 10.995C4.32145 10.801 4.77104 10.6942 5.22817 10.6813L48.325 7.94634C48.7716 7.91773 49.2193 7.97923 49.6415 8.12715C50.0637 8.27508 50.4517 8.50641 50.7825 8.80734C51.1132 9.10827 51.3798 9.47265 51.5665 9.87873C51.7531 10.2848 51.8559 10.7243 51.8688 11.1709L52.2903 17.8132L2.42732 20.9776L2.00579 14.3353Z" fill="#F2A89C"/>
<path opacity="0.15" d="M2.42005 20.863L5.86046 20.6447L7.75005 50.4205C7.31234 50.4636 6.87043 50.4197 6.4498 50.2915C6.02917 50.1632 5.63814 49.953 5.29926 49.6731C4.96038 49.3932 4.68036 49.049 4.47533 48.6605C4.27031 48.2719 4.14434 47.8467 4.10469 47.4093L2.42005 20.863ZM2.00579 14.3353C1.96087 13.8808 2.0101 13.422 2.15041 12.9873C2.29073 12.5526 2.51913 12.1514 2.8214 11.8086C3.12367 11.4659 3.49334 11.1889 3.9074 10.995C4.32146 10.801 4.77104 10.6942 5.22817 10.6813L5.86046 20.6447L2.42005 20.863L2.00579 14.3353Z" fill="#003B85"/>
<path d="M52.2903 17.8132L53.9677 44.2449C54.0236 45.1258 53.7268 45.9927 53.1427 46.6552C52.5585 47.3176 51.7348 47.7212 50.8527 47.7771L7.75586 50.5121C7.31054 50.5558 6.86098 50.5095 6.434 50.3759C6.00702 50.2424 5.61136 50.0243 5.27062 49.7347C4.92988 49.4452 4.65104 49.09 4.45072 48.6905C4.25041 48.291 4.13272 47.8552 4.10469 47.4093L2.42005 20.863M52.2831 17.6987L51.8688 11.1709C51.8559 10.7243 51.7531 10.2848 51.5665 9.87873C51.3798 9.47265 51.1132 9.10827 50.7825 8.80734C50.4517 8.50641 50.0637 8.27508 49.6415 8.12715C49.2193 7.97923 48.7716 7.91773 48.3251 7.94634L5.22817 10.6813C4.77104 10.6942 4.32146 10.801 3.9074 10.995C3.49334 11.1889 3.12367 11.4659 2.8214 11.8086C2.51913 12.1514 2.29073 12.5526 2.15041 12.9873C2.0101 13.422 1.96087 13.8808 2.00579 14.3353L2.42732 20.9776L52.2831 17.6987ZM52.2903 17.8132L2.42732 20.9776L52.2903 17.8132Z" stroke="#2D4267" stroke-width="2" stroke-linecap="round" stroke-linejoin="round"/>
<path d="M46.4747 31.4057L43.1489 31.6167L37.8549 26.9394L33.4872 37.2201L24.4474 26.1345L17.0922 41.5951L13.2403 33.5147L9.91457 33.7258" stroke="#2D4267" stroke-width="2" stroke-linecap="round" stroke-linejoin="round"/>
<circle cx="9.10304" cy="15.6684" r="1" transform="rotate(176.369 9.10304 15.6684)" stroke="#2E4369" stroke-width="2"/>
<circle cx="15.091" cy="15.2885" r="1" transform="rotate(176.369 15.091 15.2885)" stroke="#2E4369" stroke-width="2"/>
<circle cx="21.0789" cy="14.9084" r="1" transform="rotate(176.369 21.0789 14.9084)" stroke="#2E4369" stroke-width="2"/>
<path d="M47.8544 20.9412L97.6757 24.7063L95.6678 51.276C95.592 52.1278 95.1908 52.9178 94.5474 53.482C93.904 54.0462 93.0677 54.3413 92.2121 54.3062L48.9221 51.0346C48.0487 50.9687 47.2363 50.562 46.6607 49.9026C46.0851 49.2432 45.7926 48.384 45.8465 47.5109L47.8544 20.9412Z" fill="white"/>
<path d="M48.356 14.3045C48.3773 13.8602 48.4875 13.4246 48.6802 13.0236C48.873 12.6226 49.1443 12.2642 49.4781 11.9697C49.8119 11.6753 50.2015 11.4506 50.6237 11.3091C51.046 11.1675 51.4925 11.112 51.9366 11.1457L95.2266 14.4173C96.1017 14.5135 96.9032 14.9516 97.4561 15.6359C98.0089 16.3202 98.2682 17.1952 98.1773 18.0696L97.6757 24.7063L47.8544 20.9412L48.356 14.3045Z" fill="#9BC3E8"/>
<path opacity="0.15" d="M47.8544 20.9412L51.1774 21.1924L48.9291 50.9432C48.071 50.8791 47.271 50.486 46.6964 49.8463C46.1219 49.2066 45.8173 48.3698 45.8465 47.511L47.8544 20.9412ZM48.356 14.3045C48.3773 13.8602 48.4875 13.4246 48.6802 13.0236C48.873 12.6226 49.1443 12.2642 49.4781 11.9697C49.8119 11.6753 50.2015 11.4506 50.6237 11.3091C51.046 11.1675 51.4925 11.112 51.9366 11.1457L51.1774 21.1924L47.8544 20.9412L48.356 14.3045Z" fill="#003B85"/>
<path d="M97.6826 24.6147L95.6677 51.276C95.592 52.1278 95.1908 52.9178 94.5474 53.482C93.904 54.0462 93.0677 54.3413 92.212 54.3061L48.9221 51.0346C48.0487 50.9687 47.2363 50.562 46.6607 49.9026C46.0851 49.2431 45.7926 48.384 45.8465 47.5109L47.8544 20.9412M97.6757 24.7063L98.1772 18.0695C98.2682 17.1951 98.0089 16.3201 97.456 15.6358C96.9032 14.9515 96.1017 14.5134 95.2265 14.4172L51.9366 11.1457C51.0553 11.0791 50.1837 11.3648 49.5135 11.94C48.8433 12.5152 48.4294 13.3328 48.3629 14.2129L47.8613 20.8496L97.6757 24.7063ZM97.6826 24.6147L47.8613 20.8496L97.6826 24.6147Z" stroke="#2D4267" stroke-width="2" stroke-linecap="round" stroke-linejoin="round"/>
<path d="M70.2114 41.3657C73.2111 41.5924 75.8263 39.3479 76.0526 36.3524C76.279 33.3569 74.0308 30.7448 71.0312 30.5181C68.0316 30.2914 65.4164 32.536 65.19 35.5315C64.9637 38.5269 67.2118 41.139 70.2114 41.3657Z" stroke="#2D4267" stroke-width="2" stroke-linecap="round" stroke-linejoin="round"/>
<path d="M77.7826 44.2623L74.1595 40.0527" stroke="#2D4267" stroke-width="2" stroke-linecap="round" stroke-linejoin="round"/>
<circle cx="55.1607" cy="16.6843" r="1" transform="rotate(-175.678 55.1607 16.6843)" stroke="#2E4369" stroke-width="2"/>
<circle cx="61.1436" cy="17.1365" r="1" transform="rotate(-175.678 61.1436 17.1365)" stroke="#2E4369" stroke-width="2"/>
<circle cx="67.1265" cy="17.5886" r="1" transform="rotate(-175.678 67.1265 17.5886)" stroke="#2E4369" stroke-width="2"/>
</svg>

<svg width="100" height="62" fill="none" xmlns="http://www.w3.org/2000/svg"><path d="M2.42 20.863l49.863-3.164 1.685 26.546a3.326 3.326 0 01-.825 2.41 3.335 3.335 0 01-2.29 1.122L7.756 50.512A3.336 3.336 0 014.45 48.69a3.325 3.325 0 01-.346-1.28L2.42 20.862z" fill="#fff"/><path d="M2.006 14.335a3.324 3.324 0 011.901-3.34c.414-.194.864-.3 1.321-.314l43.097-2.735a3.336 3.336 0 013.241 1.933c.187.406.29.845.303 1.292l.421 6.642-49.863 3.165-.421-6.643z" fill="#F2A89C"/><path opacity=".15" d="M2.42 20.863l3.44-.218L7.75 50.42a3.338 3.338 0 01-3.275-1.76 3.324 3.324 0 01-.37-1.25L2.42 20.862zm-.414-6.528a3.324 3.324 0 011.901-3.34c.414-.194.864-.3 1.321-.314l.632 9.964-3.44.218-.414-6.528z" fill="#003B85"/><path d="M52.29 17.813l1.678 26.432a3.326 3.326 0 01-3.115 3.532L7.756 50.512A3.336 3.336 0 014.45 48.69a3.325 3.325 0 01-.346-1.28L2.42 20.862m49.863-3.164l-.414-6.528a3.325 3.325 0 00-2.227-3.044 3.336 3.336 0 00-1.317-.18L5.228 10.68a3.335 3.335 0 00-3.078 2.306c-.14.435-.19.894-.144 1.348l.421 6.643 49.856-3.28zm.007.114L2.427 20.978l49.863-3.165z" stroke="#2D4267" stroke-width="2" stroke-linecap="round" stroke-linejoin="round"/><path d="M46.475 31.406l-3.326.21-5.294-4.677-4.368 10.281-9.04-11.085-7.355 15.46-3.852-8.08-3.325.21" stroke="#2D4267" stroke-width="2" stroke-linecap="round" stroke-linejoin="round"/><circle cx="9.103" cy="15.668" r="1" transform="rotate(176.369 9.103 15.668)" stroke="#2E4369" stroke-width="2"/><circle cx="15.091" cy="15.289" r="1" transform="rotate(176.369 15.091 15.289)" stroke="#2E4369" stroke-width="2"/><circle cx="21.079" cy="14.908" r="1" transform="rotate(176.369 21.079 14.908)" stroke="#2E4369" stroke-width="2"/><path d="M47.854 20.941l49.822 3.765-2.008 26.57a3.326 3.326 0 01-3.456 3.03l-43.29-3.271a3.335 3.335 0 01-2.261-1.132 3.325 3.325 0 01-.815-2.392l2.008-26.57z" fill="#fff"/><path d="M48.356 14.305a3.325 3.325 0 012.268-2.996 3.336 3.336 0 011.313-.163l43.29 3.271a3.326 3.326 0 012.95 3.652l-.501 6.637-49.822-3.765.502-6.636z" fill="#9BC3E8"/><path opacity=".15" d="M47.854 20.941l3.323.251-2.248 29.751a3.326 3.326 0 01-3.083-3.432l2.008-26.57zm.502-6.636a3.325 3.325 0 012.268-2.996 3.336 3.336 0 011.313-.163l-.76 10.046-3.323-.25.502-6.637z" fill="#003B85"/><path d="M97.683 24.615l-2.015 26.661a3.326 3.326 0 01-3.456 3.03l-43.29-3.271a3.335 3.335 0 01-2.261-1.132 3.325 3.325 0 01-.815-2.392l2.008-26.57m49.822 3.765l.501-6.636a3.325 3.325 0 00-.721-2.434 3.334 3.334 0 00-2.23-1.219l-43.29-3.271a3.335 3.335 0 00-2.422.794 3.325 3.325 0 00-1.151 2.273l-.502 6.637 49.815 3.856zm.007-.091L47.86 20.85l49.822 3.765z" stroke="#2D4267" stroke-width="2" stroke-linecap="round" stroke-linejoin="round"/><path d="M70.211 41.366a5.443 5.443 0 005.842-5.014 5.443 5.443 0 00-5.022-5.834 5.443 5.443 0 00-5.841 5.014 5.443 5.443 0 005.021 5.834zm7.572 2.896l-3.624-4.21" stroke="#2D4267" stroke-width="2" stroke-linecap="round" stroke-linejoin="round"/><circle cx="55.161" cy="16.684" r="1" transform="rotate(-175.678 55.16 16.684)" stroke="#2E4369" stroke-width="2"/><circle cx="61.144" cy="17.137" r="1" transform="rotate(-175.678 61.144 17.137)" stroke="#2E4369" stroke-width="2"/><circle cx="67.126" cy="17.589" r="1" transform="rotate(-175.678 67.126 17.589)" stroke="#2E4369" stroke-width="2"/></svg>
